PortableApps/LibreOfficePortable/App/libreoffice/help/media/icon-themes/cmd/sc_insertcolumnsafter.svg

<svg viewBox="0 0 16 16" xmlns="http://www.w3.org/2000/svg"><path d="m.99804688 5v4.0039062c.00999562.0000076.01926962-.0020936.02929692-.0019531l4.1425781-.0039062-.5703125-.5683594c-.6251456-.6096927-.7514809-1.4854855-.4433594-2.2109375.3079839-.725128 1.0223035-1.2426122 1.8945312-1.21875zm5.05273432 0c.5201306.0144434 1.012319.2312772 1.375.6015625l1.5742188 1.5703125v-2.171875zm4.9492188 0v4.1660156l.371094.3691406c.184315.3150885.763567.8917758.628906 1.1718748.222273.57662-.04325 1.249496-.683594 1.794922l-.011718.009766-.304688.304687v1.183594h4v-9zm-6.0078125 7.994141-3.9648437.003906c-.0100272.00014-.0193014-.001961-.02929692-.001953v1.003906h3.26367192c.0956114-.161377.2059008-.315325.3476562-.451172l.3828125-.382812z" fill="#fff"/><path d="m0 1v4 4.265625c.30672726-.192884.58286038-.265625.99804688-.2832031v-3.9824219h4.00195312v.2773438c.2919719-.1699176.6282376-.2723001 1-.2714844v-.0058594h.0507812 2.9492188v-4zm0 11.730469v1.769531c-.000384.276301.223699.500384.5.5h3.4921875c-.00308-.362459.09102-.699132.2675781-.998047h-3.26171872v-1.005859c-.36175589.000268-.69863661-.094105-.99804688-.265625z" fill="#808080"/><g fill="#4d82b8"><path d="m10 1v4 3.1679688l1.371094 1.3671874c.071429.1221099.210417.2964791.335937.4648438h3.292969v-1h-4v-4h4.001953v9.001953h-5.001953v.998047h5.5c.276301.000384.500384-.223699.5-.5v-9.5-4zm1 11.816406-1 .998047v.185547h1z"/><path d="m6.0234375 6c-.4311106-.0117942-.8004374.2636776-.9472656.609375s-.0881987.8022495.2207031 1.1035156l2.2910156 2.2832032-6.5742187.00586c-.29419165-.0041203-.57998881.1209532-.75781252.3183582-.17782372.197406-.25585938.441996-.25585938.679688s.07803566.482282.25585938.679688c.17782371.197405.46362087.322478.75781252.318359l6.5703125-.0059-2.2832032 2.279296c-.2134025.204508-.330058.497067-.3164062.763672.013652.266605.1340314.495769.3027344.664063.1687029.168293.3958725.285259.6621094.298828.2662368.01357.5586377-.101546.7636718-.314453l-.00586.0078 3.9121094-3.90625.04101-.03906-.03711.03125c.502246-.394972.501451-1.187774-.0078-1.576172l.04883.04297-3.9531325-3.9433098c-.1813575-.18516-.4285792-.2935913-.6875-.3007812zm-.03125 8.990234h.00195c-.030651.03183-.00692.01107.00586.01172.011306.000576.00128-.0025-.00781-.0098-.00119-.00095.00121-.000744 0-.002z"/></g></svg>

<svg viewBox="0 0 16 16" xmlns="http://www.w3.org/2000/svg">
  <path
     style="fill:#ffffff"
     d="M 0.99804688 5 L 0.99804688 9.0039062 C 1.0080425 9.0039138 1.0173165 9.0018126 1.0273438 9.0019531 L 5.1699219 8.9980469 L 4.5996094 8.4296875 C 3.9744638 7.8199948 3.8481285 6.944202 4.15625 6.21875 C 4.4642339 5.493622 5.1785535 4.9761378 6.0507812 5 L 0.99804688 5 z M 6.0507812 5 C 6.5709118 5.0144434 7.0631002 5.2312772 7.4257812 5.6015625 L 9 7.171875 L 9 5 L 6.0507812 5 z M 11 5 L 11 9.1660156 L 11.371094 9.5351562 C 11.555409 9.8502447 12.134661 10.426932 12 10.707031 C 12.222273 11.283651 11.95675 11.956527 11.316406 12.501953 L 11.304688 12.511719 L 11 12.816406 L 11 14 L 15 14 L 15 5 L 11 5 z M 4.9921875 12.994141 L 1.0273438 12.998047 C 1.0173166 12.998187 1.0080424 12.996086 0.99804688 12.996094 L 0.99804688 14 L 4.2617188 14 C 4.3573302 13.838623 4.4676196 13.684675 4.609375 13.548828 L 4.9921875 13.166016 L 4.9921875 12.994141 z "
     />
  <path
     style="fill:#808080"
     d="M 0,1 V 5 9.265625 C 0.30672726,9.072741 0.58286038,9 0.99804688,8.9824219 V 5 H 5 V 5.2773438 C 5.2919719,5.1074262 5.6282376,5.0050437 6,5.0058594 V 5 H 6.0507812 9 V 1 Z M 0,12.730469 V 14.5 c -3.84e-4,0.276301 0.223699,0.500384 0.5,0.5 h 3.4921875 c -0.00308,-0.362459 0.09102,-0.699132 0.2675781,-0.998047 H 0.99804688 V 12.996094 C 0.63629099,12.996362 0.29941027,12.901989 0,12.730469 Z"
     />
  <path
     style="fill:#4d82b8"
     d="M 10 1 L 10 5 L 10 8.1679688 L 11.371094 9.5351562 C 11.442523 9.6572661 11.581511 9.8316353 11.707031 10 L 15 10 L 15 9 L 11 9 L 11 5 L 15.001953 5 L 15.001953 14.001953 L 10 14.001953 L 10 15 L 15.5 15 C 15.776301 15.000384 16.000384 14.776301 16 14.5 L 16 5 L 16 1 L 10 1 z M 11 12.816406 L 10 13.814453 L 10 14 L 11 14 L 11 12.816406 z "
     />
  <path
     style="fill:#4d82b8"
     d="M 6.0234375,6 C 5.5923269,5.9882058 5.2230001,6.2636776 5.0761719,6.609375 4.9293437,6.9550724 4.9879732,7.4116245 5.296875,7.7128906 l 2.2910156,2.2832032 -6.5742187,0.00586 C 0.71948025,9.9978335 0.43368309,10.122907 0.25585938,10.320312 0.07803566,10.517718 0,10.762308 0,11 c 0,0.237692 0.07803566,0.482282 0.25585938,0.679688 0.17782371,0.197405 0.46362087,0.322478 0.75781252,0.318359 l 6.5703125,-0.0059 -2.2832032,2.279296 c -0.2134025,0.204508 -0.330058,0.497067 -0.3164062,0.763672 0.013652,0.266605 0.1340314,0.495769 0.3027344,0.664063 0.1687029,0.168293 0.3958725,0.285259 0.6621094,0.298828 0.2662368,0.01357 0.5586377,-0.101546 0.7636718,-0.314453 l -0.00586,0.0078 3.9121094,-3.90625 0.04101,-0.03906 -0.03711,0.03125 c 0.502246,-0.394972 0.501451,-1.187774 -0.0078,-1.576172 l 0.04883,0.04297 L 6.7109375,6.3007812 C 6.52958,6.1156212 6.2823583,6.0071899 6.0234375,6 Z m -0.03125,8.990234 h 0.00195 c -0.030651,0.03183 -0.00692,0.01107 0.00586,0.01172 0.011306,5.76e-4 0.00128,-0.0025 -0.00781,-0.0098 -0.00119,-9.5e-4 0.00121,-7.44e-4 0,-0.002 z"
     />
</svg>
